frontend/public/svg/misc/plane.svg

<svg width="150" height="120" viewBox="0 0 150 120" fill="none" xmlns="http://www.w3.org/2000/svg">
<path d="M32.1695 51.6325L52.9098 38.2865C47.4327 31.8176 42.0802 25.4959 36.7271 19.1747C35.6678 17.9276 34.6183 16.6648 33.5354 15.4335C31.0629 12.6231 31.061 9.73912 33.561 7.01663C33.7822 6.77576 34.0329 6.56248 34.2724 6.33866C43.0864 -1.90297 41.1036 -0.914518 50.9861 2.60542C60.0179 5.82148 68.9153 9.52122 77.5874 13.6109C83.2818 16.2959 87.8263 16.9293 93.3396 12.6953C100.727 6.97629 109.429 3.19915 118.651 1.70881C126.18 0.495894 133.599 0.561555 141.032 2.67168C151.152 5.54316 150.717 15.8798 145.894 20.7794C143.253 23.3849 140.359 25.7211 137.255 27.7536C129.469 33.0004 121.606 38.1422 113.627 43.0936C112.467 43.7475 111.464 44.6488 110.691 45.7335C109.918 46.8182 109.393 48.0598 109.154 49.3701C105.307 66.5006 101.285 83.5949 97.2835 100.691C96.8177 102.485 96.262 104.253 95.6184 105.991C95.1661 107.345 94.441 108.592 93.4879 109.655C92.5348 110.718 91.3739 111.574 90.0769 112.171C85.3513 114.437 80.6092 116.673 75.7937 118.734C70.8114 120.868 68.215 118.943 68.53 113.527C69.322 99.9014 70.1192 86.2767 70.9217 72.6524C70.9657 71.8989 70.9276 71.1428 70.9276 69.8669C69.4744 70.6978 68.2917 71.3699 67.1136 72.0498C55.7695 78.6001 44.6951 85.7135 32.3605 90.3111C27.4728 92.1487 22.3829 93.395 17.1991 94.0234C12.1565 94.6095 8.24864 92.1201 6.05122 87.1975C3.77998 82.3445 2.37015 77.1333 1.88478 71.7971C1.31508 64.2906 0.756539 56.7828 0.312855 49.2684C0.0614772 45.0199 1.95764 42.2062 5.92848 40.2602C15.0332 35.7971 14.0165 36.4429 20.1395 41.7815C23.6791 44.8663 27.3166 47.8441 30.9199 50.8574C31.319 51.1428 31.7365 51.4018 32.1695 51.6325ZM75.734 110.665L76.5964 111.059C78.7656 110.064 80.8626 108.835 83.1204 108.127C86.9475 106.929 87.9648 103.993 88.8384 100.555C93.5863 81.865 98.4284 63.1983 103.364 44.5552C103.896 42.4911 104.839 40.5557 106.137 38.8651C107.435 37.1746 109.061 35.7637 110.918 34.7173C117.749 30.6277 124.313 26.0865 130.916 21.6241C134.079 19.487 137.167 17.2122 140.113 14.7864C142.6 12.7393 142.22 11.1765 139.207 10.1526C132.666 7.93416 125.949 7.58893 119.152 8.46055C110.366 9.58617 102.764 13.6634 95.4438 18.2945C75.1472 31.1373 54.8801 44.0269 34.6426 56.9633C31.0327 59.2644 30.4775 59.3071 27.27 56.3726C23.2407 52.6859 19.3053 48.8969 15.2905 45.1945C14.2285 44.2146 13.2296 42.558 11.4378 43.8096C9.60004 45.0941 6.60124 45.3999 6.92547 48.6902C7.96248 59.2099 8.5814 69.794 10.1921 80.2259C11.4535 88.3946 14.1301 89.5039 22.1072 87.1266C30.7577 84.5485 38.6929 80.432 46.3917 75.833C54.546 70.963 62.6072 65.9374 70.7248 61.005C74.2795 58.845 76.8983 60.0507 77.4772 64.1055C77.7578 65.7197 77.9038 67.3543 77.9137 68.9927C77.6551 79.1475 77.3295 89.2997 76.9895 99.452C76.9534 100.53 76.6423 101.598 76.5301 102.677C76.24 105.338 75.9952 108.003 75.7366 110.666L75.734 110.665ZM59.4482 34.1628L78.8824 21.7639C68.1811 15.7944 57.0284 10.6728 45.5267 6.44626C44.6852 6.14304 43.4421 5.95468 42.77 6.35701C40.6835 7.61062 38.7835 9.1734 37.5049 10.1087L48.3036 21.9496C51.88 25.8686 55.4557 29.7863 59.4482 34.1634V34.1628Z" fill="black"/>
</svg>

<svg xmlns="http://www.w3.org/2000/svg" width="150" height="120" fill="none" viewBox="0 0 150 120"><path fill="#000" d="m32.17 51.633 20.74-13.347-16.183-19.111c-1.06-1.247-2.109-2.51-3.192-3.742-2.472-2.81-2.474-5.694.026-8.416.221-.241.472-.455.711-.678 8.814-8.242 6.832-7.254 16.714-3.734 9.032 3.216 17.93 6.916 26.601 11.006 5.695 2.685 10.24 3.318 15.753-.916A55.9 55.9 0 0 1 118.65 1.71c7.529-1.213 14.948-1.147 22.381.963 10.12 2.871 9.685 13.208 4.862 18.107a56 56 0 0 1-8.639 6.975c-7.786 5.246-15.649 10.388-23.628 15.34a9.08 9.08 0 0 0-4.473 6.276c-3.847 17.13-7.869 34.225-11.87 51.321a55 55 0 0 1-1.666 5.3 10.45 10.45 0 0 1-5.541 6.18c-4.726 2.266-9.468 4.502-14.283 6.563-4.983 2.134-7.579.209-7.264-5.207q1.189-20.438 2.392-40.875c.044-.753.006-1.51.006-2.785-1.454.83-2.636 1.503-3.814 2.183C55.769 78.6 44.695 85.714 32.36 90.31a65.5 65.5 0 0 1-15.162 3.712c-5.043.587-8.95-1.903-11.148-6.825a46.2 46.2 0 0 1-4.166-15.4C1.315 64.29.757 56.782.313 49.267.06 45.02 1.958 42.206 5.928 40.26c9.105-4.463 8.089-3.817 14.212 1.522 3.54 3.084 7.177 6.062 10.78 9.075q.599.43 1.25.776m43.564 59.032.862.394c2.17-.995 4.267-2.224 6.524-2.932 3.828-1.198 4.845-4.134 5.718-7.572a5767 5767 0 0 1 14.526-56 15.83 15.83 0 0 1 7.554-9.838c6.831-4.09 13.395-8.63 19.998-13.093a121 121 0 0 0 9.197-6.838c2.487-2.047 2.107-3.61-.906-4.633-6.541-2.219-13.258-2.564-20.055-1.692-8.786 1.125-16.388 5.202-23.708 9.833a15635 15635 0 0 0-60.801 38.67c-3.61 2.3-4.166 2.343-7.373-.591-4.03-3.687-7.965-7.476-11.98-11.178-1.061-.98-2.06-2.637-3.852-1.385C9.6 45.094 6.6 45.4 6.925 48.69c1.037 10.52 1.656 21.104 3.267 31.536 1.261 8.169 3.938 9.278 11.915 6.9 8.65-2.578 16.586-6.694 24.285-11.293 8.154-4.87 16.215-9.896 24.333-14.828 3.555-2.16 6.173-.954 6.752 3.1.28 1.615.427 3.25.437 4.888a3801 3801 0 0 1-.924 30.459c-.037 1.078-.348 2.146-.46 3.225-.29 2.661-.535 5.326-.793 7.989zM59.448 34.163l19.434-12.4A234.5 234.5 0 0 0 45.527 6.447c-.842-.303-2.085-.491-2.757-.089-2.087 1.254-3.987 2.816-5.265 3.752l10.799 11.84c3.576 3.92 7.152 7.837 11.144 12.214"/></svg>
